public/assets/icon_compliance.svg

<svg fill="none" height="14" viewBox="0 0 12 14" width="12" xmlns="http://www.w3.org/2000/svg"><path d="m8.22222 2.14471h2.77778v10.90909h-10v-10.90909h2.77778m0 6 1.66666 1.63637 3.33334-3.27273m-5-2.72727h4.44444v-2.72728h-4.44444z" stroke="#fff"/></svg>

<svg width="12" height="14" viewBox="0 0 12 14" fill="none" xmlns="http://www.w3.org/2000/svg">
<path d="M8.22222 2.14471H11V13.0538H1V2.14471H3.77778M3.77778 8.14471L5.44444 9.78108L8.77778 6.50835M3.77778 3.78108H8.22222V1.0538H3.77778V3.78108Z" stroke="white"/>
</svg>
